X:325
T: Bonnie Annie
S: "Music of Ireland - The Big Session" (DJ Taylor)
Z: B.Black
L: 1/8
M: 4/4
R: reel
K: D
FEFA cBAB|cAdA cAGE|F3 d cA A2|cAGE FD D2 :|
defg afdf|efed cA A2|defg af a2|ABAG FD D2|
defg afbf|gfed cdef|a4 g3 c|dcBA FD D2 ||
